X:1
T:Title
%%score 1 2 3
L:1/8
M:2/2
K:C
V:1 treble nm="Part_1"
V:2 treble-8 nm="Part_2"
V:3 treble-8 nm="Part_3"
V:1
 G6 A2 | B4 G2 B2 | c2 d4 B2 | A2 c2 B2 A2- | AG G3 ^FFE | G4 z4 | A4 B4 | E2 E2 z2 D2 | %8
 E2 G3 FED | C2 D3 C C2- |[M:4/8] C2 B,2 |[M:2/2] C8 | z8 | G4 A4 | B4 c4 | B2 G4 A2- | %16
 AG F2 E2 D2- | D2 G3 ^FFE | G4 z4 | B4 A2 c2 | B2 A3 G E2- | E2 A4 G2- | GF F4 E2 | F4 z4 | %24
 G4 A2 c2 | B2 A3 G E2- | E2 D4 G2 | F2 _B4 A2- | AG G4 F2 | G8 || G4 ^F2 D2 | E4 D2 F2 | %32
 E2 D4 E2 | D2 G4 ^F2 | G4 z4 | B4 A2 c2 | B2 A3 GFE | D2 G2 F2 E2- | ED D4 C2 | D4 z2 D2 | %40
 F3 G A2 _B2- | BA G3 ^F/G/FE | G4 z4 | _B4 c4 | A2 _B2 A2 G2- | GF F3 EED | F4 G2 A2 | %47
 _B2 c4 A2- | AG F2 E2 D2- | D2 G3 ^FFE | G8 |] %51
V:2
 d8- | d4 d4 | e2 d2 B2 d2 | c4 z2 F2- | F2 G2 D4 | d4 z4 | d4 B4 | c4 G3 A | B2 e3 dcB | %9
 A2 D2 G2 G2- |[M:4/8] G2 F2 |[M:2/2] G4 z2 A2 | G2 c3 BAG | G4 d4 | z2 d2 c2 BA | G4 C2 F2- | %16
 FE D2 A2 D2 | G4 D4 | z4 d4 | d4 c3 d | e2 (3:2:2f4 e2 c2 | A2 F2 c2 z2 | c2 c3 A B2 | %23
 c3 A c2 d2 | e4 c3 d | e2 f3 e c2 | A2 d2 _B2 G2 | D2 G2 d4 | z2 d4 c2 | d8 || d8 | A4 D4 | %32
 z2 d2 G2 C2 | G2 E2 D4 | z2 d4 e2 | d2 B2 c4 | z4 d4- | d2 c2 c4 | A2 A4 G2 | A4 z4 | D4 F2 D2 | %41
 G4 D4 | z2 d4 d2 | d4 c4 | z2 G2 A2 d2- | dc c4 B2 | c2 d2 e2 c2 | z2 A2 F4 | D4 A2 D2- | %49
 D2 G2 D4 | d8 |] %51
V:3
 G8- | G8 | G8 | A4 B2 c2- | c2 B2 A4 | G8 | z8 | A4 B4 | E4 E4 | F4 E2 C2 |[M:4/8] D4 | %11
[M:2/2] C8- | C8 | z8 | G4 A4 | B4 c4 | d4 c2 d2- | d2 B2 A4 | G8- | G4 A4 | G2 F2 A3 B | %21
 c4 F2 E2 | F4 G4 | F8 | E4 F4 | G2 F2 A4 | c2 _B2 G4 | d4 G2 D2 | F2 G2 A4 | G8 || G4 B4 | c4 d4 | %32
 G4 B2 c2 | B2 G2 A4 | G8 | G4 F4 | G2 F2 D4 | G4 A3 G | A2 F2 E4 | D8 | d4 c2 d2- | d2 _B2 A4 | %42
 G8- | G4 A4 | d4 c2 _B2- | B2 A2 G4 | F4 E2 F2 | G2 F2 A4 | d4 c2 d2- | d2 _B2 A4 | G8 |] %51

